apps/trade/public/tokens/imx.svg

<svg width="24" height="24" viewBox="0 0 24 25" fill="none" xmlns="http://www.w3.org/2000/svg">
<rect y="0.5" width="24" height="24" rx="12" fill="#111118"/>
<path d="M12 0.5C5.37257 0.5 0 5.87257 0 12.5C0 19.1274 5.37257 24.5 12 24.5C18.6274 24.5 24 19.1274 24 12.5C24 5.87257 18.6274 0.5 12 0.5ZM11.4806 5.34886C11.814 5.186 12.1654 5.19629 12.4877 5.38057C13.608 6.01914 14.7249 6.66286 15.8374 7.31514C16.1957 7.52514 16.3783 7.86286 16.38 8.276C16.3869 9.72629 16.3843 11.1757 16.38 12.626C16.38 12.68 16.3449 12.758 16.302 12.7837C15.8709 13.04 15.4346 13.2886 14.9623 13.5603C14.9623 13.4651 14.9623 13.3983 14.9623 13.3323C14.9623 11.8409 14.958 10.3494 14.9657 8.858C14.9674 8.57172 14.868 8.38743 14.6143 8.24257C13.3131 7.50371 12.0197 6.75029 10.7237 6.002C10.668 5.96943 10.6131 5.93514 10.5283 5.88371C10.8626 5.69429 11.1634 5.504 11.4806 5.34886ZM11.2423 20.1886C11.1703 20.1509 11.1154 20.1251 11.0631 20.0951C9.34629 19.1051 7.632 18.1091 5.91 17.1269C5.42743 16.8509 5.20714 16.4591 5.21143 15.908C5.22086 14.7354 5.21829 13.5637 5.21229 12.3911C5.20971 11.8614 5.42486 11.4783 5.88943 11.2143C7.098 10.5269 8.30057 9.82829 9.50314 9.12971C9.60686 9.06971 9.68314 9.05943 9.79114 9.12457C10.2069 9.374 10.6286 9.61229 11.07 9.86686C10.986 9.91657 10.9217 9.956 10.8574 9.99286C9.55628 10.7446 8.256 11.498 6.95143 12.2446C6.73714 12.3671 6.63857 12.5257 6.64028 12.7734C6.64714 13.6974 6.648 14.6206 6.64028 15.5446C6.63771 15.8 6.73886 15.9611 6.95914 16.0871C8.33571 16.874 9.70714 17.6711 11.0829 18.4597C11.1994 18.5266 11.2491 18.596 11.2457 18.7357C11.2354 19.2089 11.2423 19.682 11.2423 20.1886ZM11.2423 17.5426C11.1231 17.4749 11.0366 17.426 10.9509 17.3763C9.85972 16.7463 8.76943 16.1146 7.67571 15.4897C7.55743 15.422 7.51371 15.35 7.51543 15.2129C7.52314 14.5023 7.52057 13.7926 7.51714 13.082C7.51714 12.986 7.53171 12.9191 7.62686 12.8669C8.02971 12.6423 8.42743 12.4074 8.82686 12.1777C8.856 12.1614 8.88686 12.1486 8.94 12.1229C8.94 12.404 8.94 12.662 8.94 12.92C8.94 13.352 8.94686 13.784 8.93743 14.216C8.93229 14.462 9.02657 14.6283 9.24172 14.75C9.85972 15.0989 10.47 15.4614 11.0889 15.8086C11.2106 15.8771 11.2474 15.9526 11.2449 16.0871C11.2371 16.5594 11.2423 17.0326 11.2423 17.5426ZM9.98143 8.22114C9.75 8.08486 9.552 8.08657 9.32057 8.222C8.02286 8.97971 6.72 9.728 5.41885 10.4797C5.364 10.5114 5.30657 10.5406 5.20972 10.5937C5.244 10.0991 5.13857 9.63286 5.30657 9.18114C5.39828 8.93429 5.57057 8.74829 5.79857 8.61629C6.88457 7.98886 7.96971 7.35972 9.05743 6.73657C9.45428 6.50857 9.85971 6.51457 10.2566 6.74257C11.4917 7.454 12.7269 8.16714 13.9594 8.88286C14.0117 8.91371 14.0777 8.98143 14.0786 9.032C14.0871 9.54029 14.0837 10.0477 14.0837 10.5937C13.6354 10.3349 13.2214 10.0957 12.8074 9.85743C11.8646 9.31314 10.92 8.77314 9.98143 8.22114ZM18.666 16.2054C18.6343 16.6049 18.3994 16.8886 18.054 17.0866C16.7306 17.8477 15.4097 18.6114 14.0871 19.3751C13.6723 19.6143 13.2574 19.8543 12.8417 20.0934C12.792 20.1226 12.7397 20.1474 12.672 20.1834C12.6677 20.1149 12.6617 20.0643 12.6617 20.0137C12.6609 19.5757 12.6643 19.1377 12.6591 18.6997C12.6583 18.6011 12.6831 18.5394 12.774 18.4871C14.7026 17.378 16.6286 16.2646 18.5554 15.1529C18.5846 15.1357 18.6163 15.1229 18.6711 15.0963C18.672 15.4846 18.6943 15.8471 18.666 16.2054ZM18.6754 13.4446C18.672 13.8989 18.4277 14.2177 18.0386 14.4406C16.5309 15.3071 15.0249 16.1789 13.5189 17.048C13.2437 17.2066 12.9677 17.3651 12.672 17.5349C12.6677 17.4603 12.6617 17.4106 12.6617 17.36C12.6609 16.928 12.666 16.496 12.6583 16.0631C12.6566 15.9406 12.6969 15.8746 12.8031 15.8137C14.1737 15.0277 15.5383 14.2323 16.9106 13.4506C17.1549 13.3117 17.262 13.1411 17.2603 12.8549C17.25 11.3634 17.2551 9.87114 17.2551 8.37971C17.2551 8.30857 17.2551 8.23829 17.2551 8.11914C17.6134 8.33514 17.9477 8.51257 18.2546 8.72943C18.534 8.92743 18.6746 9.22743 18.6763 9.57286C18.6814 10.8637 18.6849 12.1537 18.6754 13.4446Z" fill="white"/>
</svg>

<svg width="24" height="24" viewBox="0 0 24 25" fill="none" xmlns="http://www.w3.org/2000/svg">
    <rect y=".5" width="24" height="24" rx="12" fill="#111118"/>
    <path d="M12 .5C5.373.5 0 5.873 0 12.5s5.373 12 12 12 12-5.373 12-12-5.373-12-12-12Zm-.52 4.849a1.04 1.04 0 0 1 1.008.032c1.12.638 2.237 1.282 3.35 1.934.358.21.54.548.542.961.007 1.45.004 2.9 0 4.35 0 .054-.035.132-.078.158-.431.256-.867.505-1.34.776v-.228c0-1.491-.004-2.983.004-4.474.001-.286-.098-.47-.352-.615-1.3-.74-2.594-1.493-3.89-2.241l-.196-.118c.335-.19.635-.38.953-.535Zm-.238 14.84c-.072-.038-.127-.064-.179-.094-1.717-.99-3.431-1.986-5.153-2.968-.483-.276-.703-.668-.699-1.219a267.2 267.2 0 0 0 .001-3.517c-.002-.53.213-.913.677-1.177 1.209-.687 2.412-1.386 3.614-2.084.104-.06.18-.07.288-.005.416.249.838.487 1.279.742-.084.05-.148.089-.213.126-1.3.752-2.601 1.505-3.906 2.252-.214.122-.312.28-.31.528.006.924.007 1.848 0 2.772-.003.255.098.416.318.542 1.377.787 2.748 1.584 4.124 2.373.116.067.166.136.163.276-.01.473-.004.946-.004 1.453Zm0-2.646-.291-.167c-1.091-.63-2.182-1.261-3.275-1.886-.119-.068-.162-.14-.16-.277.007-.71.005-1.42.001-2.131 0-.096.015-.163.11-.215.403-.225.8-.46 1.2-.69.029-.016.06-.028.113-.054v.797c0 .432.007.864-.003 1.296a.545.545 0 0 0 .305.534c.618.349 1.228.711 1.847 1.059.122.068.158.144.156.278-.008.472-.003.946-.003 1.456ZM9.982 8.22c-.232-.136-.43-.134-.661.001-1.298.758-2.601 1.506-3.902 2.258-.055.031-.112.06-.21.114.035-.495-.07-.961.098-1.413.091-.247.264-.433.492-.565 1.086-.627 2.17-1.256 3.258-1.88.397-.227.803-.221 1.2.007 1.235.711 2.47 1.424 3.702 2.14.053.03.119.098.12.149.008.508.005 1.016.005 1.562l-1.277-.737c-.942-.544-1.887-1.084-2.826-1.636Zm8.684 7.984c-.032.4-.267.684-.612.882-1.323.76-2.644 1.524-3.967 2.288-.415.24-.83.48-1.245.718-.05.03-.102.054-.17.09-.004-.068-.01-.119-.01-.17-.001-.437.002-.875-.003-1.313 0-.099.024-.16.115-.213 1.929-1.109 3.855-2.222 5.781-3.334.03-.017.061-.03.116-.057.001.389.023.751-.005 1.11Zm.01-2.76c-.004.454-.248.773-.637.996-1.508.866-3.014 1.738-4.52 2.607a626.1 626.1 0 0 1-.847.487c-.004-.075-.01-.124-.01-.175-.001-.432.004-.864-.004-1.297-.001-.122.039-.188.145-.25 1.37-.785 2.735-1.58 4.108-2.362.244-.14.351-.31.35-.596-.011-1.492-.006-2.984-.006-4.475v-.26c.358.215.693.393 1 .61.279.197.42.497.421.843.005 1.29.009 2.58 0 3.872Z" fill="#fff"/>
</svg>
